build/images/ico/logo.svg

<?xml version="1.0" encoding="UTF-8"?>
<svg width="80px" height="80px" viewBox="0 0 80 80" version="1.1" xmlns="http://www.w3.org/2000/svg" xmlns:xlink="http://www.w3.org/1999/xlink">
    <title>logo@1x</title>
    <defs>
        <polygon id="path-1" points="0 0 80 0 80 80 0 80"></polygon>
    </defs>
    <g id="1.-Design" stroke="none" stroke-width="1" fill="none" fill-rule="evenodd">
        <g id="HP-v.2.1-(schválená)" transform="translate(-16, -16)">
            <g id="HEADER-#2" transform="translate(0, 16)">
                <g id="logo" transform="translate(16, 0)">
                    <g id="Group-3">
                        <mask id="mask-2" fill="white">
                            <use xlink:href="#path-1"></use>
                        </mask>
                        <g id="Clip-2"></g>
                        <path d="M40,80.0145155 C17.9440044,80.0145155 0,62.0674973 0,40.0072578 C0,17.9472602 17.9440044,0 40,0 C62.0562375,0 80,17.9472602 80,40.0072578 C80,62.0674973 62.0562375,80.0145155 40,80.0145155" id="Fill-1" fill="#FFFFFE" mask="url(#mask-2)"></path>
                    </g>
                    <path d="M40,78.9858473 C61.4604826,78.9858473 78.9715184,61.4716342 78.9715184,40.0072578 C78.9715184,18.5428813 61.4604826,1.0286682 40,1.0286682 C18.5392756,1.0286682 1.02848159,18.5428813 1.02848159,40.0072578 C1.02848159,61.4716342 18.5392756,78.9858473 40,78.9858473" id="Fill-4" fill="#000000"></path>
                    <path d="M40,15.5035684 C53.1554696,15.5035684 63.9450928,25.9779848 64.4796517,39.0170558 C62.8662998,38.7698077 61.4108968,38.5225596 60.3819314,38.2448288 C57.5410292,37.4827628 54.7787386,36.4925608 52.0171736,36.0471755 C51.314265,35.9383089 50.7402794,35.9281481 50.364395,36.0573364 C49.7696075,35.3044635 48.8298966,34.6413451 47.938562,34.3145034 C47.3742517,34.1064473 46.6517506,33.6213862 46.0189877,33.3344623 C45.3153534,33.0073787 44.6525972,32.6316681 43.6824091,32.8191605 C43.1178569,31.9973388 42.5039608,31.6511431 42.0893753,31.403895 C42.4846103,31.2055159 42.9095967,30.8595621 43.2075951,30.5024797 C41.0589587,29.0572154 40.4549797,25.3443813 40,22.5032055 C39.5445365,25.3443813 38.9410413,29.0572154 36.7924049,30.5024797 C37.0899196,30.8689972 37.4263772,31.176001 37.821854,31.3441393 C35.3278104,31.7302528 34.4168834,33.1859199 32.7836972,34.2450708 C31.8831711,34.8293214 30.8038943,35.2749486 29.7251013,35.7401718 C26.6759388,37.0470546 23.5484066,37.7300109 20.3906392,38.6016693 C19.965169,38.7202129 17.8765193,38.967461 15.5203483,39.205274 C15.9458185,26.0771743 26.7751104,15.5035684 40,15.5035684" id="Fill-5" fill="#1F89BE"></path>
                    <path d="M76.7241942,41.3141406 C76.0220112,60.9568163 59.7975449,76.7683561 40,76.7683561 C20.2024551,76.7683561 3.97847252,60.9568163 3.27532201,41.3141406 L14.2236198,41.3141406 C14.9163694,54.9270594 26.2303925,65.8178299 40,65.8178299 C53.7696075,65.8178299 65.082905,54.9270594 65.7766221,41.3141406 L76.7241942,41.3141406" id="Fill-6" fill="#FFFFFE"></path>
                    <path d="M40,3.24615943 C60.2430912,3.24615943 76.7544295,19.7604935 76.7544295,40.0072578 C76.7544295,40.3534535 76.7442704,40.7105359 76.7336276,41.0668925 C74.5470158,40.8585944 72.4977928,40.1850732 70.350124,39.8683924 C68.9046381,39.6511431 67.3207958,39.433168 65.7969402,39.2151929 C65.3707444,25.3545422 53.9473907,14.1966856 40,14.1966856 C26.0129407,14.1966856 14.5598355,25.4239748 14.2040273,39.3438974 C11.8872831,39.5720334 9.57126444,39.7793637 8.52173913,39.8487964 C7.98718026,39.8882303 7.92816109,39.9378251 7.48261474,40.1558002 C7.17566669,40.3239386 6.83920905,40.4035321 5.94787446,40.5423975 C5.29455161,40.6411032 5.27520106,40.6507802 3.79004656,40.8585944 C3.71119308,40.9081892 3.47366511,41.0071368 3.26564673,41.1063264 C3.25548769,40.7400508 3.24581242,40.3737753 3.24581242,40.0072578 C3.24581242,19.7604935 19.7569088,3.24615943 40,3.24615943" id="Fill-7" fill="#FFFFFE"></path>
                    <polyline id="Fill-8" fill="#000000" points="14.6986757 29.918713 15.3718329 28.651506 12.1548044 26.9485908 13.8968374 23.661304 12.857713 23.1164872 11.1151962 26.3943389 9.21448872 25.3840571 11.2044506 21.6518689 10.1058233 21.0673763 7.443188 26.0674973 14.6986757 29.918713"></polyline>
                    <path d="M19.0046562,14.7211806 C17.608998,13.6121931 15.8565641,13.9487117 14.5699946,15.2756744 C12.857713,17.0477803 13.2435145,19.4631668 14.9262865,21.0872142 C16.6088166,22.7209387 19.0443248,23.0177815 20.7466892,21.2555945 C22.1324303,19.8202492 22.1225132,17.8797629 20.7865997,16.4238539 L19.8164117,17.4338938 C20.5984157,18.3546631 20.7965169,19.5132454 19.9054242,20.4342567 C18.687791,21.7012217 17.0543629,21.1566469 15.9259842,20.0578202 C14.7876882,18.9686706 14.1837093,17.355026 15.4112596,16.0873352 C16.2430912,15.2260796 17.1537764,15.2756744 18.0047167,15.7505746 L19.0046562,14.7211806" id="Fill-9" fill="#000000"></path>
                    <path d="M25.9834311,13.4041369 C26.7453589,15.2952704 28.4777166,15.5824362 30.2299087,14.9190758 C31.7547318,14.3251482 33.011308,13.0581831 32.348068,11.3351881 C32.051279,10.5431233 31.2397654,9.87032781 30.1111447,9.95887263 C29.6655984,9.98862949 27.8045595,10.2066046 27.6758783,10.2162816 C27.0721413,10.2760373 26.5871682,10.1175759 26.3791498,9.58267812 C26.0823608,8.81069312 26.7850275,8.27579533 27.4085989,8.03798234 C28.3292012,7.68162574 29.1310395,7.80041127 29.576344,8.76109834 L30.9226583,8.24603847 C30.3090041,6.64207088 28.6359074,6.31571308 27.0423898,6.92972058 C25.6568906,7.45445748 24.5183528,8.72142252 25.1022555,10.2559574 C25.4094455,11.0480223 26.1019532,11.6913028 27.5474391,11.5432442 C28.7055693,11.4338938 29.4578219,11.3054312 30.0712342,11.3054312 C30.427768,11.3054312 30.8438048,11.4142978 31.0711737,12.0087093 C31.2891093,12.5827991 31.0711737,13.3347042 29.8932092,13.7803314 C28.8240914,14.1966856 27.774808,14.0682231 27.3198283,12.8898028 L25.9834311,13.4041369" id="Fill-10" fill="#000000"></path>
                    <polyline id="Fill-11" fill="#000000" points="34.8525125 13.1568888 40.4356292 12.7710173 40.3466167 11.5335672 36.1988269 11.820733 35.7138538 4.87020685 34.2785269 4.96915447 34.8525125 13.1568888"></polyline>
                    <path d="M46.5032352,6.28595621 C48.2351091,6.58304101 48.6910564,8.24603847 48.4240189,9.79049232 C48.1463385,11.345349 47.1563161,12.7509375 45.424684,12.4441756 C43.6918425,12.1371719 43.2375884,10.4836095 43.5043841,8.92947865 C43.7810969,7.37486392 44.7711193,5.97919439 46.5032352,6.28595621 Z M46.7110117,5.12713197 C44.2861462,4.70206846 42.5039608,6.36506592 42.0893753,8.6817467 C41.6830138,10.9882666 42.7915583,13.1665659 45.2164238,13.602516 C47.641773,14.0285472 49.4237165,12.354905 49.8390276,10.0481432 C50.2458729,7.73170437 49.1368447,5.55364703 46.7110117,5.12713197 L46.7110117,5.12713197 Z" id="Fill-12" fill="#000000"></path>
                    <polyline id="Fill-13" fill="#000000" points="52.2249501 15.8200073 53.6506017 16.5431233 59.877124 10.5034474 58.5699946 9.84008709 53.7492895 14.6718277 53.7294552 14.6621507 54.8481587 7.93927664 53.5117615 7.25656224 52.2249501 15.8200073"></polyline>
                    <path d="M55.8681744,17.7607355 L56.9467255,18.7707754 L58.9961904,17.7111407 L61.3910625,19.9487117 L60.4704602,22.0578202 L61.5993227,23.1068102 L64.8852875,14.9488327 L63.7668259,13.9095198 L55.8681744,17.7607355 Z M63.3415976,15.4438127 L63.3609482,15.4636507 L61.8562012,18.8890771 L60.0256395,17.1762429 L63.3415976,15.4438127 L63.3415976,15.4438127 Z" id="Fill-14" fill="#000000"></path>
                    <polyline id="Fill-15" fill="#000000" points="62.0845377 24.156284 62.767612 25.3443813 67.9941948 22.3246643 68.0133035 22.3544212 64.6579186 28.6118302 65.4101711 29.92839 72.5173853 25.8195234 71.8350366 24.6314262 66.5982947 27.661304 66.5881357 27.6414661 69.9539215 21.364703 69.1907843 20.0578202 62.0845377 24.156284"></polyline>
                    <polyline id="Fill-16" fill="#000000" points="10.2937655 59.5805008 13.7485638 63.996613 14.7182681 63.234547 12.1548044 59.947986 17.6387495 55.6501754 16.7575739 54.5213499 10.2937655 59.5805008"></polyline>
                    <polyline id="Fill-17" fill="#000000" points="17.4106549 67.2539011 18.5296003 68.1550744 23.6966802 61.778638 22.5779767 60.8777065 17.4106549 67.2539011"></polyline>
                    <path d="M30.1996735,67.9663723 C29.883292,68.6297327 29.2498035,68.7782751 28.6262321,68.4913512 L26.4979138,67.491714 L27.4482675,65.4423612 L29.576344,66.4320794 C30.2891697,66.7690819 30.5467739,67.2139833 30.1996735,67.9663723 Z M29.0816956,71.2338212 C28.7251618,71.9859683 28.0720808,72.2037015 27.2799178,71.827265 L24.9735744,70.7579533 L26.0627683,68.4315955 L28.3591945,69.5110681 C29.1511157,69.8773437 29.4179114,70.5107052 29.0816956,71.2338212 Z M30.2594183,65.4617153 L26.6466711,63.768719 L23.1819556,71.2142252 L26.5968434,72.80779 C28.5173853,73.7087214 29.7546109,73.1740656 30.2993288,72.0062901 C30.7746266,70.9957663 30.6159521,70.0653199 29.7945214,69.4416354 L29.8044385,69.4217975 C30.6258693,69.4416354 31.2591159,69.0852788 31.6059745,68.3328898 C32.1898772,67.0954397 31.5960573,66.0849159 30.2594183,65.4617153 L30.2594183,65.4617153 Z" id="Fill-18" fill="#000000"></path>
                    <polyline id="Fill-19" fill="#000000" points="34.3776985 75.0557639 40.3364576 75.579775 40.4453045 74.342083 35.9216303 73.9465344 36.1294068 71.550502 40.237528 71.9170195 40.3364576 70.7485182 36.2285783 70.3824846 36.4165205 68.2436192 40.8613412 68.6297327 40.9701881 67.3922826 35.0900405 66.8774646 34.3776985 75.0557639"></polyline>
                    <path d="M45.424684,75.1150357 L46.8104251,74.7678723 L45.9981859,71.4907463 L48.0476507,70.9764122 C49.3344621,70.6597315 49.7904094,71.2236603 50.1561347,72.6892464 C50.2550644,73.0753599 50.364395,73.5105843 50.6609421,73.8081529 L52.15553,73.4314745 C51.7794038,73.1842264 51.4325452,72.3725656 51.1952591,71.4513124 C50.8883111,70.1838636 50.0968737,70.0060481 49.5913406,70.0556429 L49.5913406,70.0360469 C49.8293524,69.8773437 50.790107,69.2241442 50.4035799,67.6995282 C50.0671222,66.3529696 48.9788958,65.7682352 47.2358953,66.2044272 L43.434964,67.1547115 L45.424684,75.1150357 Z M45.1080607,67.9370993 L47.3742517,67.3726866 C48.0977203,67.1941454 48.8100623,67.2338212 49.0674246,68.2436192 C49.2752011,69.0852788 48.8993167,69.6397726 48.0181411,69.8575057 L45.7311483,70.4318374 L45.1080607,67.9370993 L45.1080607,67.9370993 Z" id="Fill-20" fill="#000000"></path>
                    <polyline id="Fill-21" fill="#000000" points="56.7684586 71.4022015 61.7969402 68.1347526 61.1143496 67.0954397 57.3030175 69.5805008 55.9963718 67.5606629 59.4613291 65.3131729 58.8268731 64.3229708 55.3529661 66.579896 54.1846768 64.7780331 57.9367479 62.3432926 57.2539155 61.3034958 52.3042874 64.521108 56.7684586 71.4022015"></polyline>
                    <path d="M65.4694322,55.8088787 C63.9654109,54.8481916 62.2625627,55.3731704 61.1143496,56.8283537 C59.5996856,58.7591629 60.2329322,61.1254385 62.0845377,62.5702189 C63.9247747,64.0159671 66.3702002,64.0558848 67.8846224,62.1151566 C69.1116889,60.5508649 68.9046381,58.6202976 67.4202092,57.3235757 L66.5583842,58.4226442 C67.4296426,59.254143 67.7465078,60.3928874 66.9640201,61.3925245 C65.8854689,62.778517 64.2019713,62.4025644 62.9652295,61.4326842 C61.7275201,60.4717552 60.955917,58.9273013 62.0344682,57.540825 C62.7772873,56.6009435 63.6877305,56.5511068 64.5783395,56.9372203 L65.4694322,55.8088787" id="Fill-22" fill="#000000"></path>
                    <path d="M29.1806253,61.9767751 C26.4485699,60.6304584 24.0033863,58.7787589 21.9643224,56.5511068 L21.9643224,41.3141406 L29.1806253,41.3141406 L29.1806253,61.9767751" id="Fill-23" fill="#FFFFFE"></path>
                    <path d="M43.6033138,64.2441031 C42.4253492,64.4219185 41.2173913,64.5109471 40,64.5109471 C38.7826087,64.5109471 37.5746508,64.4219185 36.3969281,64.2441031 L36.3969281,41.3141406 L43.6033138,41.3141406 L43.6033138,64.2441031" id="Fill-24" fill="#FFFFFE"></path>
                    <path d="M58.0354357,56.5511068 C55.9963718,58.7787589 53.5511882,60.6304584 50.8193747,61.9767751 L50.8193747,41.3141406 L58.0354357,41.3141406 L58.0354357,56.5511068" id="Fill-25" fill="#FFFFFE"></path>
                    <path d="M21.9643224,56.5511068 C18.2325694,52.491835 15.8471307,47.1750333 15.5399407,41.3141406 L21.9643224,41.3141406 L21.9643224,56.5511068" id="Fill-26" fill="#1F89BE"></path>
                    <path d="M36.3969281,64.2441031 C33.8428977,63.8674247 31.4177904,63.0855207 29.1806253,61.9767751 L29.1806253,41.3141406 L36.3969281,41.3141406 L36.3969281,64.2441031" id="Fill-27" fill="#1F89BE"></path>
                    <path d="M50.8193747,61.9767751 C48.5819677,63.0855207 46.1573441,63.8674247 43.6033138,64.2441031 L43.6033138,41.3141406 L50.8193747,41.3141406 L50.8193747,61.9767751" id="Fill-28" fill="#1F89BE"></path>
                    <path d="M64.4603011,41.3141406 C64.1533531,47.1750333 61.7674306,52.491835 58.0354357,56.5511068 L58.0354357,41.3141406 L64.4603011,41.3141406" id="Fill-29" fill="#1F89BE"></path>
                </g>
            </g>
        </g>
    </g>
</svg>

<svg width="80" height="80" viewBox="0 0 80 80" xmlns="http://www.w3.org/2000/svg" xmlns:xlink="http://www.w3.org/1999/xlink"><defs><path id="a" d="M0 0h80v80H0z"/></defs><g fill="none" fill-rule="evenodd"><g><mask id="b" fill="#fff"><use xlink:href="#a"/></mask><path d="M40 80.015c-22.056 0-40-17.948-40-40.008C0 17.947 17.944 0 40 0s40 17.947 40 40.007-17.944 40.008-40 40.008" fill="#FFFFFE" mask="url(#b)"/></g><path d="M40 78.986c21.46 0 38.972-17.514 38.972-38.979C78.972 18.543 61.46 1.03 40 1.03S1.028 18.543 1.028 40.007C1.028 61.472 18.54 78.986 40 78.986" fill="#000"/><path d="M40 15.504c13.155 0 23.945 10.474 24.48 23.513-1.614-.247-3.07-.494-4.098-.772-2.841-.762-5.603-1.752-8.365-2.198-.703-.109-1.277-.119-1.653.01-.594-.753-1.534-1.416-2.425-1.742-.565-.209-1.287-.694-1.92-.98-.704-.328-1.366-.703-2.337-.516-.564-.822-1.178-1.168-1.593-1.415a3.76 3.76 0 001.119-.902c-2.149-1.445-2.753-5.158-3.208-7.999-.455 2.841-1.059 6.554-3.208 8 .298.366.634.673 1.03.841-2.494.386-3.405 1.842-5.038 2.901-.9.584-1.98 1.03-3.059 1.495-3.05 1.307-6.177 1.99-9.334 2.862-.426.118-2.514.365-4.87.603C15.945 26.077 26.774 15.504 40 15.504" fill="#1F89BE"/><path d="M76.724 41.314C76.022 60.957 59.798 76.768 40 76.768S3.978 60.957 3.275 41.314h10.949C14.916 54.927 26.23 65.818 40 65.818s25.083-10.89 25.777-24.504h10.947M40 3.246c20.243 0 36.754 16.514 36.754 36.761 0 .346-.01.704-.02 1.06-2.187-.208-4.236-.882-6.384-1.199-1.445-.217-3.03-.435-4.553-.653C65.37 25.355 53.947 14.197 40 14.197c-13.987 0-25.44 11.227-25.796 25.147-2.317.228-4.633.435-5.682.505-.535.04-.594.089-1.04.307-.306.168-.643.248-1.534.386-.653.1-.673.109-2.158.317-.079.05-.316.148-.524.247-.01-.366-.02-.732-.02-1.099 0-20.247 16.51-36.76 36.754-36.76" fill="#FFFFFE"/><path fill="#000" d="M14.699 29.919l.673-1.267-3.217-1.703 1.742-3.288-1.04-.545-1.742 3.278-1.9-1.01 1.99-3.732-1.1-.585-2.662 5L14.7 29.92M19.005 14.721c-1.396-1.109-3.148-.772-4.435.555-1.712 1.772-1.326 4.187.356 5.811 1.683 1.634 4.118 1.93 5.82.169 1.386-1.436 1.377-3.376.04-4.832l-.97 1.01c.782.92.98 2.08.09 3-1.218 1.267-2.852.723-3.98-.376-1.138-1.09-1.742-2.703-.515-3.97.832-.862 1.743-.812 2.594-.337l1-1.03M25.983 13.404c.762 1.891 2.495 2.178 4.247 1.515 1.525-.594 2.781-1.86 2.118-3.584-.297-.792-1.108-1.465-2.237-1.376-.445.03-2.306.248-2.435.257-.604.06-1.089-.098-1.297-.633-.297-.772.406-1.307 1.03-1.545.92-.356 1.722-.238 2.167.723l1.347-.515c-.614-1.604-2.287-1.93-3.88-1.316-1.386.524-2.525 1.791-1.94 3.326.306.792.999 1.435 2.444 1.287 1.159-.11 1.91-.238 2.524-.238.357 0 .773.11 1 .704.218.574 0 1.326-1.178 1.771-1.069.417-2.118.288-2.573-.89l-1.337.514M34.853 13.157l5.583-.386-.09-1.237-4.147.287-.485-6.95-1.435.098.574 8.188M46.503 6.286c1.732.297 2.188 1.96 1.921 3.504-.278 1.555-1.268 2.96-3 2.654-1.732-.307-2.186-1.96-1.92-3.515.277-1.554 1.267-2.95 3-2.643zm.208-1.159c-2.425-.425-4.207 1.238-4.622 3.555-.406 2.306.703 4.485 3.127 4.92 2.426.427 4.208-1.247 4.623-3.554.407-2.316-.702-4.494-3.128-4.92zM52.225 15.82l1.426.723 6.226-6.04-1.307-.663-4.82 4.832-.02-.01 1.118-6.723-1.336-.682-1.287 8.563M55.868 17.76l1.079 1.01 2.05-1.059 2.394 2.238-.92 2.109 1.128 1.049 3.286-8.158-1.118-1.04-7.899 3.852zm7.474-2.316l.019.02-1.505 3.425-1.83-1.713 3.316-1.732zM62.085 24.156l.683 1.188 5.226-3.02.02.03-3.356 6.258.752 1.316 7.107-4.108-.682-1.189-5.237 3.03-.01-.02 3.366-6.276-.763-1.307-7.106 4.098M10.294 59.58l3.455 4.417.97-.762-2.564-3.287 5.484-4.298-.881-1.129-6.464 5.06M17.41 67.254l1.12.901 5.167-6.376-1.119-.901-5.167 6.376M30.2 67.966c-.317.664-.95.812-1.574.525l-2.128-1 .95-2.049 2.128.99c.713.337.97.782.624 1.534zm-1.118 3.268c-.357.752-1.01.97-1.802.593l-2.306-1.069 1.089-2.326 2.296 1.08c.792.365 1.059.999.723 1.722zm1.177-5.772l-3.612-1.693-3.465 7.445 3.415 1.594c1.92.9 3.158.366 3.702-.802.476-1.01.317-1.94-.504-2.564l.01-.02c.82.02 1.454-.337 1.801-1.09.584-1.237-.01-2.247-1.347-2.87zM34.378 75.056l5.958.524.11-1.238-4.524-.395.207-2.396 4.109.366.098-1.168-4.107-.367.188-2.138 4.444.386.11-1.238-5.881-.515-.712 8.179M45.425 75.115l1.385-.347-.812-3.277 2.05-.515c1.286-.316 1.742.248 2.108 1.713.1.386.208.822.505 1.12l1.495-.378c-.377-.247-.723-1.058-.96-1.98-.308-1.267-1.1-1.445-1.605-1.395v-.02c.238-.159 1.2-.812.813-2.336-.337-1.347-1.425-1.932-3.168-1.496l-3.801.95 1.99 7.961zm-.317-7.178l2.266-.564c.724-.179 1.436-.14 1.693.87.208.842-.168 1.397-1.049 1.615l-2.287.574-.623-2.495zM56.768 71.402l5.029-3.267-.683-1.04-3.811 2.486-1.307-2.02 3.465-2.248-.634-.99-3.474 2.257-1.168-1.802 3.752-2.435-.683-1.04-4.95 3.218 4.464 6.881M65.47 55.809c-1.505-.96-3.207-.436-4.356 1.02-1.514 1.93-.881 4.296.97 5.741 1.84 1.446 4.286 1.486 5.8-.455 1.228-1.564 1.02-3.495-.464-4.791l-.862 1.099c.872.831 1.189 1.97.406 2.97-1.079 1.386-2.762 1.01-3.999.04-1.237-.961-2.01-2.506-.93-3.892.742-.94 1.653-.99 2.543-.604l.891-1.128"/><path d="M29.18 61.977a24.45 24.45 0 01-7.216-5.426V41.314h7.217v20.663M43.603 64.244a24.177 24.177 0 01-3.603.267c-1.217 0-2.425-.09-3.603-.267v-22.93h7.206v22.93M58.035 56.551a24.453 24.453 0 01-7.216 5.426V41.314h7.216v15.237" fill="#FFFFFE"/><path d="M21.964 56.551c-3.731-4.06-6.117-9.376-6.424-15.237h6.424v15.237M36.397 64.244a24.186 24.186 0 01-7.216-2.267V41.314h7.216v22.93M50.82 61.977a24.187 24.187 0 01-7.217 2.267v-22.93h7.216v20.663M64.46 41.314c-.307 5.861-2.693 11.178-6.425 15.237V41.314h6.425" fill="#1F89BE"/></g></svg>
